public/about/shape-dark.svg

<svg width="505" height="505" viewBox="0 0 505 505" fill="none" xmlns="http://www.w3.org/2000/svg">
<g clip-path="url(#clip0_239_150)">
<path d="M414.573 43.0779C455.283 71.8338 484.948 116.39 497.571 164.106C509.879 212.137 505.461 263.329 494.731 317.365C483.686 371.401 466.013 427.965 427.827 462.093C389.642 496.537 330.312 508.545 274.454 504.121C218.595 499.697 165.893 478.525 125.814 445.029C85.4189 411.217 57.6476 364.765 33.9788 312.309C10.31 259.853 -9.25622 201.077 4.62947 151.466C18.1996 101.538 64.906 60.7738 114.768 34.8619C164.946 9.26592 217.964 -1.16205 270.351 0.101943C322.738 1.36594 374.178 14.3219 414.573 43.0779Z" fill="#222335"/>
</g>
<defs>
<clipPath id="clip0_239_150">
<rect width="505" height="505" fill="white"/>
</clipPath>
</defs>
</svg>

<?xml version="1.0" encoding="UTF-8"?>
<svg id="Layer_1" xmlns="http://www.w3.org/2000/svg" xmlns:xlink="http://www.w3.org/1999/xlink" viewBox="0 0 505 505">
  <defs>
    <style>
      .cls-1 {
        fill: none;
      }

      .cls-2 {
        fill: #331a18;
      }

      .cls-3 {
        clip-path: url(#clippath);
      }
    </style>
    <clipPath id="clippath">
      <rect class="cls-1" width="505" height="505"/>
    </clipPath>
  </defs>
  <g class="cls-3">
    <path class="cls-2" d="M414.57,43.08c40.71,28.76,70.38,73.31,83,121.03,12.31,48.03,7.89,99.22-2.84,153.26-11.04,54.04-28.72,110.6-66.9,144.73-38.18,34.44-97.51,46.45-153.37,42.03-55.86-4.42-108.56-25.6-148.64-59.09-40.4-33.81-68.17-80.26-91.84-132.72C10.31,259.85-9.26,201.08,4.63,151.47c13.57-49.93,60.28-90.69,110.14-116.6C164.95,9.27,217.96-1.16,270.35.1c52.39,1.26,103.83,14.22,144.22,42.98Z"/>
  </g>
</svg>
